optimized/24/outline/number.svg

<svg viewBox="0 0 24 24" xmlns="http://www.w3.org/2000/svg" fill="currentColor" data-slot="icon">
  <g clip-path="url(#clip0_4645_12)">
    <path fill-rule="evenodd" clip-rule="evenodd" d="M4.004 4.61H19.996C20.2744 4.61 20.5 4.83565 20.5 5.114V18.8838C20.5 19.1621 20.2744 19.3878 19.996 19.3878H4.004C3.72565 19.3878 3.5 19.1621 3.5 18.8838V5.114C3.5 4.83565 3.72565 4.61 4.004 4.61ZM2 5.114C2 4.00722 2.89722 3.11 4.004 3.11H19.996C21.1028 3.11 22 4.00722 22 5.114V18.8838C22 19.9906 21.1028 20.8878 19.996 20.8878H4.004C2.89722 20.8878 2 19.9906 2 18.8838V5.114ZM7.19445 7.55439C7.19445 7.14018 6.85867 6.80439 6.44445 6.80439C6.03024 6.80439 5.69445 7.14018 5.69445 7.55439V16.4433C5.69445 16.8575 6.03024 17.1933 6.44445 17.1933C6.85867 17.1933 7.19445 16.8575 7.19445 16.4433V7.55439ZM8.66668 6.80439C8.25247 6.80439 7.91668 7.14018 7.91668 7.55439C7.91668 7.96861 8.25247 8.30439 8.66668 8.30439H11C11.1381 8.30439 11.25 8.41632 11.25 8.55439V10.9988C11.25 11.1369 11.1381 11.2488 11 11.2488H9.66668C8.70018 11.2488 7.91668 12.0323 7.91668 12.9988V15.4433C7.91668 16.4098 8.70018 17.1933 9.66668 17.1933H12C12.4142 17.1933 12.75 16.8575 12.75 16.4433C12.75 16.0291 12.4142 15.6933 12 15.6933H9.66668C9.52861 15.6933 9.41668 15.5814 9.41668 15.4433V12.9988C9.41668 12.8608 9.52861 12.7488 9.66668 12.7488H11C11.9665 12.7488 12.75 11.9653 12.75 10.9988V8.55439C12.75 7.5879 11.9665 6.80439 11 6.80439H8.66668ZM13.4722 7.55439C13.4722 7.14018 13.808 6.80439 14.2222 6.80439H16.5556C17.5221 6.80439 18.3056 7.5879 18.3056 8.55439V11.9988V15.4433C18.3056 16.4098 17.5221 17.1933 16.5556 17.1933H14.2222C13.808 17.1933 13.4722 16.8575 13.4722 16.4433C13.4722 16.0291 13.808 15.6933 14.2222 15.6933H16.5556C16.6936 15.6933 16.8056 15.5814 16.8056 15.4433V12.7488H14.2222C13.808 12.7488 13.4722 12.4131 13.4722 11.9988C13.4722 11.5846 13.808 11.2488 14.2222 11.2488H16.8056V8.55439C16.8056 8.41632 16.6936 8.30439 16.5556 8.30439H14.2222C13.808 8.30439 13.4722 7.96861 13.4722 7.55439Z"/>
  </g>
  <defs>
    <clipPath id="clip0_4645_12">
      <rect width="24" height="24"/>
    </clipPath>
  </defs>
</svg>

<svg xmlns="http://www.w3.org/2000/svg" viewBox="0 0 24 24" fill="currentColor" data-slot="icon">
  <g clip-path="url(#a)">
    <path fill-rule="evenodd" d="M4.004 4.61h15.992c.278 0 .504.226.504.504v13.77a.504.504 0 0 1-.504.504H4.004a.504.504 0 0 1-.504-.504V5.114c0-.278.226-.504.504-.504ZM2 5.114c0-1.107.897-2.004 2.004-2.004h15.992c1.107 0 2.004.897 2.004 2.004v13.77a2.004 2.004 0 0 1-2.004 2.004H4.004A2.004 2.004 0 0 1 2 18.884V5.114Zm5.194 2.44a.75.75 0 1 0-1.5 0v8.89a.75.75 0 0 0 1.5 0v-8.89Zm1.473-.75a.75.75 0 0 0 0 1.5H11a.25.25 0 0 1 .25.25V11a.25.25 0 0 1-.25.25H9.667a1.75 1.75 0 0 0-1.75 1.75v2.444c0 .967.783 1.75 1.75 1.75H12a.75.75 0 0 0 0-1.5H9.667a.25.25 0 0 1-.25-.25V13a.25.25 0 0 1 .25-.25H11a1.75 1.75 0 0 0 1.75-1.75V8.554A1.75 1.75 0 0 0 11 6.804H8.667Zm4.805.75a.75.75 0 0 1 .75-.75h2.334c.966 0 1.75.784 1.75 1.75V15.443a1.75 1.75 0 0 1-1.75 1.75h-2.334a.75.75 0 0 1 0-1.5h2.334a.25.25 0 0 0 .25-.25V12.75h-2.584a.75.75 0 1 1 0-1.5h2.584V8.554a.25.25 0 0 0-.25-.25h-2.334a.75.75 0 0 1-.75-.75Z" clip-rule="evenodd"/>
  </g>
  <defs>
    <clipPath id="a">
      <rect width="24" height="24"/>
    </clipPath>
  </defs>
</svg>
